svg/fail.svg

<?xml version="1.0" encoding="UTF-8"?>
<svg xmlns="http://www.w3.org/2000/svg" xmlns:xlink="http://www.w3.org/1999/xlink" width="32" height="32" viewBox="0 0 32 32">
<path fill-rule="nonzero" fill="rgb(0%, 0%, 0%)" fill-opacity="1" d="M 16 0 C 14.820312 0 13.863281 0.828125 13.570312 1.921875 L 5.761719 1.921875 C 4.703125 1.921875 3.84375 2.78125 3.839844 3.839844 L 3.839844 28.800781 C 3.839844 29.855469 4.703125 30.71875 5.761719 30.71875 L 26.238281 30.71875 C 27.296875 30.71875 28.15625 29.859375 28.160156 28.800781 L 28.160156 3.839844 C 28.15625 2.78125 27.296875 1.921875 26.238281 1.921875 L 18.429688 1.921875 C 18.136719 0.828125 17.179688 0 16 0 M 16 1.28125 C 16.714844 1.28125 17.28125 1.84375 17.28125 2.558594 C 17.28125 2.914062 17.566406 3.199219 17.921875 3.199219 L 20.480469 3.199219 L 20.480469 5.121094 L 11.519531 5.121094 L 11.519531 3.199219 L 14.078125 3.199219 C 14.433594 3.199219 14.71875 2.914062 14.71875 2.558594 C 14.714844 2.21875 14.851562 1.894531 15.089844 1.652344 C 15.332031 1.414062 15.660156 1.277344 16 1.28125 M 11.519531 12.160156 C 11.683594 12.160156 11.851562 12.21875 11.976562 12.34375 L 16 16.371094 L 20.023438 12.34375 C 20.273438 12.09375 20.683594 12.09375 20.933594 12.34375 C 21.183594 12.59375 21.183594 13.003906 20.933594 13.253906 L 16.910156 17.28125 L 20.933594 21.304688 C 21.183594 21.554688 21.183594 21.964844 20.933594 22.214844 C 20.679688 22.460938 20.277344 22.460938 20.023438 22.214844 L 16 18.1875 L 11.976562 22.214844 C 11.722656 22.460938 11.320312 22.460938 11.066406 22.214844 C 10.816406 21.964844 10.816406 21.558594 11.066406 21.304688 L 15.089844 17.28125 L 11.066406 13.253906 C 10.816406 13.003906 10.816406 12.597656 11.066406 12.34375 C 11.1875 12.222656 11.351562 12.15625 11.519531 12.160156 M 11.519531 12.160156 "/>
</svg>

<svg role="img" viewBox="0 0 32 32" height="32" width="32" xmlns="http://www.w3.org/2000/svg"><path d="M16 0c-1.18 0-2.137.828-2.43 1.922H5.762A1.925 1.925 0 0 0 3.84 3.84V28.8c0 1.055.863 1.919 1.922 1.919h20.476A1.925 1.925 0 0 0 28.16 28.8V3.84a1.925 1.925 0 0 0-1.922-1.918H18.43C18.137.828 17.18 0 16 0m0 1.281c.715 0 1.281.563 1.281 1.278 0 .355.285.64.64.64h2.56v1.922H11.52V3.2h2.558c.356 0 .64-.285.64-.64A1.27 1.27 0 0 1 16 1.282m-4.48 10.88c.164 0 .332.058.457.183L16 16.37l4.023-4.027c.25-.25.66-.25.91 0s.25.66 0 .91L16.91 17.28l4.024 4.024c.25.25.25.66 0 .91a.652.652 0 0 1-.91 0L16 18.188l-4.023 4.027a.652.652 0 0 1-.91 0 .646.646 0 0 1 0-.91l4.023-4.024-4.024-4.027a.646.646 0 0 1 0-.91.635.635 0 0 1 .454-.184m0 0"/></svg>
